.local/share/icons/Gruvbox-Plus-Dark/actions/16/fcitx-chn.svg

<svg width="16" height="16" version="1.1" xmlns="http://www.w3.org/2000/svg">
  <defs>
    <style id="current-color-scheme" type="text/css">.ColorScheme-Text { color:#ebdbb2; } .ColorScheme-Highlight { color:#458588; }</style>
  </defs>
  <path class="ColorScheme-Text" d="m3 1c-1.108 0-2 0.892-2 2v10c0 1.108 0.892 2 2 2h10c1.108 0 2-0.892 2-2v-10c0-1.108-0.892-2-2-2h-10zm4 1h1v2h5v7h-1v-1h-4v4h-1v-4h-3v1h-1v-7h4v-2zm-3 3v4h3v-4h-3zm4 0v4h4v-4h-4z" fill="currentColor"/>
</svg>

<svg xmlns="http://www.w3.org/2000/svg" width="16" height="16" version="1.1">
 <defs>
  <style id="current-color-scheme" type="text/css">
   .ColorScheme-Text { color:#ebdbb2; } .ColorScheme-Highlight { color:#458588; }
  </style>
 </defs>
 <path style="fill:currentColor" class="ColorScheme-Text" d="M 2,0 C 0.892,0 0,0.892 0,2 V 14 C 0,15.108 0.892,16 2,16 H 14 C 15.108,16 16,15.108 16,14 V 2 C 16,0.892 15.108,0 14,0 Z M 7,2 H 8 V 4 H 13 V 11 H 12 V 10 H 8 V 14 H 7 V 10 H 4 V 11 H 3 V 4 H 7 Z M 4,5 V 9 H 7 V 5 Z M 8,5 V 9 H 12 V 5 Z"/>
</svg>
